Numix/16/apps/goa-account-google.svg

<?xml version="1.0" encoding="UTF-8" standalone="no"?>
<!-- Generator: Adobe Illustrator 18.1.1, SVG Export Plug-In . SVG Version: 6.00 Build 0)  -->

<svg
   xmlns:dc="http://purl.org/dc/elements/1.1/"
   xmlns:cc="http://creativecommons.org/ns#"
   xmlns:rdf="http://www.w3.org/1999/02/22-rdf-syntax-ns#"
   xmlns:svg="http://www.w3.org/2000/svg"
   xmlns="http://www.w3.org/2000/svg"
   xmlns:sodipodi="http://sodipodi.sourceforge.net/DTD/sodipodi-0.dtd"
   xmlns:inkscape="http://www.inkscape.org/namespaces/inkscape"
   version="1.1"
   id="Layer_1"
   x="0px"
   y="0px"
   width="16"
   height="16"
   viewBox="0 0 16 16"
   enable-background="new 0 0 400 400"
   xml:space="preserve"
   inkscape:version="0.91 r"
   sodipodi:docname="goa-account-google.svg"><metadata
     id="metadata27"><rdf:RDF><cc:Work
         rdf:about=""><dc:format>image/svg+xml</dc:format><dc:type
           rdf:resource="http://purl.org/dc/dcmitype/StillImage" /><dc:title></dc:title></cc:Work></rdf:RDF></metadata><defs
     id="defs25" /><sodipodi:namedview
     pagecolor="#ffffff"
     bordercolor="#666666"
     borderopacity="1"
     objecttolerance="10"
     gridtolerance="10"
     guidetolerance="10"
     inkscape:pageopacity="0"
     inkscape:pageshadow="2"
     inkscape:window-width="1920"
     inkscape:window-height="1056"
     id="namedview23"
     showgrid="true"
     inkscape:zoom="16"
     inkscape:cx="6.611312"
     inkscape:cy="14.169509"
     inkscape:window-x="0"
     inkscape:window-y="24"
     inkscape:window-maximized="1"
     inkscape:current-layer="Layer_1"><inkscape:grid
       type="xygrid"
       id="grid4155" /></sodipodi:namedview><path
     style="color:#000000;font-style:normal;font-variant:normal;font-weight:normal;font-stretch:normal;font-size:medium;line-height:normal;font-family:sans-serif;text-indent:0;text-align:start;text-decoration:none;text-decoration-line:none;text-decoration-style:solid;text-decoration-color:#000000;letter-spacing:normal;word-spacing:normal;text-transform:none;direction:ltr;block-progression:tb;writing-mode:lr-tb;baseline-shift:baseline;text-anchor:start;white-space:normal;clip-rule:nonzero;display:inline;overflow:visible;visibility:visible;opacity:1;isolation:auto;mix-blend-mode:normal;color-interpolation:sRGB;color-interpolation-filters:linearRGB;solid-color:#000000;solid-opacity:1;fill:#fbbc05;fill-opacity:1;fill-rule:nonzero;stroke:none;stroke-width:6;stroke-linecap:square;stroke-linejoin:miter;stroke-miterlimit:4;stroke-dasharray:none;stroke-dashoffset:0;stroke-opacity:1;color-rendering:auto;image-rendering:auto;shape-rendering:auto;text-rendering:auto;enable-background:accumulate"
     d="M 3.4582983,4.0885413 C 2.8833366,4.7517567 2.4406981,5.5459213 2.1991836,6.4472654 2.0730816,6.9178844 2.0106819,7.3904435 2.001918,7.857422 1.999248,7.94893 1.999688,8.040797 2.001268,8.1328126 2.009318,8.6029731 2.072202,9.0788276 2.1991847,9.5527347 2.4406992,10.454079 2.8826866,11.248243 3.4576483,11.911459 L 4.6907215,10.253256 C 4.445099,9.8908117 4.251068,9.4839047 4.1308255,9.0351566 c -0.076854,-0.286824 -0.115939,-0.573543 -0.128255,-0.857422 -0.0027,-0.06224 -0.00599,-0.1241851 -0.00586,-0.1868491 8.6e-5,-0.03688 0.00284,-0.07329 0.0039,-0.110026 0.00877,-0.302902 0.048725,-0.609476 0.1308595,-0.9160161 0.120242,-0.448749 0.3136235,-0.855655 0.559245,-1.2180991 L 3.4582983,4.0885413 Z"
     id="path4282"
     inkscape:connector-curvature="0" /><path
     style="color:#000000;font-style:normal;font-variant:normal;font-weight:normal;font-stretch:normal;font-size:medium;line-height:normal;font-family:sans-serif;text-indent:0;text-align:start;text-decoration:none;text-decoration-line:none;text-decoration-style:solid;text-decoration-color:#000000;letter-spacing:normal;word-spacing:normal;text-transform:none;direction:ltr;block-progression:tb;writing-mode:lr-tb;baseline-shift:baseline;text-anchor:start;white-space:normal;clip-rule:nonzero;display:inline;overflow:visible;visibility:visible;opacity:1;isolation:auto;mix-blend-mode:normal;color-interpolation:sRGB;color-interpolation-filters:linearRGB;solid-color:#000000;solid-opacity:1;fill:#34a853;fill-opacity:1;fill-rule:nonzero;stroke:none;stroke-width:6;stroke-linecap:square;stroke-linejoin:miter;stroke-miterlimit:4;stroke-dasharray:none;stroke-dashoffset:0;stroke-opacity:1;color-rendering:auto;image-rendering:auto;shape-rendering:auto;text-rendering:auto;enable-background:accumulate"
     d="M 4.2197925,9.3216147 2.6000008,10.604167 c 0.9740461,2.00392 3.025808,3.395834 5.3945322,3.395834 0.4817608,0 0.9490678,-0.06197 1.3984368,-0.170573 0.008,-0.002 0.01613,-0.0033 0.02409,-0.0052 0.0026,-6.5e-4 0.0052,-0.0014 0.0078,-0.002 0.08015,-0.01984 0.159416,-0.0414 0.238281,-0.06445 0.115095,-0.03272 0.229298,-0.06872 0.3430992,-0.108724 0.0077,-0.0027 0.01571,-0.0044 0.02343,-0.0072 0.0013,-4.67e-4 0.0026,-8.5e-4 0.0039,-0.0013 0.327467,-0.116923 0.648776,-0.26416 0.960286,-0.444011 0.808124,-0.46657 1.460669,-1.099149 1.952475,-1.826172 l -1.920555,-0.76163 c -0.281351,0.325085 -0.618093,0.612221 -1.011068,0.842448 -0.01176,0.0069 -0.02332,0.01408 -0.03515,0.02083 -0.196745,0.112518 -0.398149,0.206624 -0.603516,0.281901 -0.102533,0.03758 -0.205972,0.07008 -0.309895,0.09896 -0.0089,0.0024 -0.0178,0.0047 -0.0267,0.0072 -0.08957,0.02424 -0.179967,0.04443 -0.270182,0.0625 C 8.518767,11.971691 8.260312,12 7.9945332,12 6.2381285,12 4.7621052,10.885531 4.2197927,9.3216142 Z"
     id="path4231"
     inkscape:connector-curvature="0" /><path
     style="color:#000000;font-style:normal;font-variant:normal;font-weight:normal;font-stretch:normal;font-size:medium;line-height:normal;font-family:sans-serif;text-indent:0;text-align:start;text-decoration:none;text-decoration-line:none;text-decoration-style:solid;text-decoration-color:#000000;letter-spacing:normal;word-spacing:normal;text-transform:none;direction:ltr;block-progression:tb;writing-mode:lr-tb;baseline-shift:baseline;text-anchor:start;white-space:normal;clip-rule:nonzero;display:inline;overflow:visible;visibility:visible;opacity:1;isolation:auto;mix-blend-mode:normal;color-interpolation:sRGB;color-interpolation-filters:linearRGB;solid-color:#000000;solid-opacity:1;fill:#4285f4;fill-opacity:1;fill-rule:nonzero;stroke:none;stroke-width:6;stroke-linecap:square;stroke-linejoin:miter;stroke-miterlimit:4;stroke-dasharray:none;stroke-dashoffset:0;stroke-opacity:1;color-rendering:auto;image-rendering:auto;shape-rendering:auto;text-rendering:auto;enable-background:accumulate"
     d="m 8.0000018,6.9999999 0,2.0000002 3.8736982,0 c -0.254121,0.9951601 -0.877984,1.8363459 -1.719401,2.3723959 l 1.619792,1.281902 C 13.129573,11.552155 14.000002,9.8741042 14.000002,8 c 0,-0.3413225 -0.0358,-0.6738935 -0.09115,-1.0000001 -1.969618,0 -3.9392362,0 -5.9088542,0 z"
     id="path4241"
     inkscape:connector-curvature="0"
     sodipodi:nodetypes="cccccscc" /><path
     style="color:#000000;font-style:normal;font-variant:normal;font-weight:normal;font-stretch:normal;font-size:medium;line-height:normal;font-family:sans-serif;text-indent:0;text-align:start;text-decoration:none;text-decoration-line:none;text-decoration-style:solid;text-decoration-color:#000000;letter-spacing:normal;word-spacing:normal;text-transform:none;direction:ltr;block-progression:tb;writing-mode:lr-tb;baseline-shift:baseline;text-anchor:start;white-space:normal;clip-rule:nonzero;display:inline;overflow:visible;visibility:visible;opacity:1;isolation:auto;mix-blend-mode:normal;color-interpolation:sRGB;color-interpolation-filters:linearRGB;solid-color:#000000;solid-opacity:1;fill:#ea4335;fill-opacity:1;fill-rule:nonzero;stroke:none;stroke-width:6;stroke-linecap:square;stroke-linejoin:miter;stroke-miterlimit:4;stroke-dasharray:none;stroke-dashoffset:0;stroke-opacity:1;color-rendering:auto;image-rendering:auto;shape-rendering:auto;text-rendering:auto;enable-background:accumulate"
     d="m 7.994533,1.9999994 c -2.3687242,0 -4.4204861,1.3919139 -5.3945322,3.3958339 L 4.2197925,6.6783854 C 4.762105,5.1144688 6.2381283,3.9999997 7.994533,3.9999997 c 1.0249668,0 1.9529058,0.3821047 2.658203,1.0084636 l 1.4056,-1.405599 C 10.987272,2.611939 9.5610058,1.9999994 7.994533,1.9999994 Z"
     id="path4248"
     inkscape:connector-curvature="0"
     sodipodi:nodetypes="sccsccs" /></svg>

<!-- Generator: Adobe Illustrator 18.1.1, SVG Export Plug-In . SVG Version: 6.00 Build 0)  -->
<svg xmlns="http://www.w3.org/2000/svg" viewBox="0 0 16 16" style="enable-background:new 0 0 400 400">
 <path d="m 3.458 4.089 c -0.575 0.663 -1.018 1.457 -1.259 2.359 -0.126 0.471 -0.189 0.943 -0.197 1.41 -0.003 0.092 -0.002 0.183 -0.001 0.275 0.008 0.47 0.071 0.946 0.198 1.42 0.242 0.901 0.684 1.696 1.258 2.359 l 1.233 -1.658 c -0.246 -0.362 -0.44 -0.769 -0.56 -1.218 c -0.077 -0.287 -0.116 -0.574 -0.128 -0.857 -0.003 -0.062 -0.006 -0.124 -0.006 -0.187 0 -0.037 0.003 -0.073 0.004 -0.11 0.009 -0.303 0.049 -0.609 0.131 -0.916 0.12 -0.449 0.314 -0.856 0.559 -1.218 l -1.232 -1.658" mix-blend-mode="normal" isolation="auto" white-space="normal" solid-opacity="1" solid-color="#000000" style="visibility:visible;shape-rendering:auto;color-interpolation-filters:linearRGB;fill:#fbbc05;opacity:1;image-rendering:auto;fill-opacity:1;stroke:none;display:inline;color:#000;fill-rule:nonzero;color-rendering:auto;color-interpolation:sRGB"/>
 <path d="m 4.22 9.322 -1.62 1.283 c 0.974 2 3.03 3.396 5.395 3.396 0.482 0 0.949 -0.062 1.398 -0.171 0.008 -0.002 0.016 -0.003 0.024 -0.005 0.003 -0.001 0.005 -0.001 0.008 -0.002 0.08 -0.02 0.159 -0.041 0.238 -0.064 0.115 -0.033 0.229 -0.069 0.343 -0.109 0.008 -0.003 0.016 -0.004 0.023 -0.007 0.001 0 0.003 -0.001 0.004 -0.001 0.327 -0.117 0.649 -0.264 0.96 -0.444 0.808 -0.467 1.461 -1.099 1.952 -1.826 l -1.921 -0.762 c -0.281 0.325 -0.618 0.612 -1.011 0.842 -0.012 0.007 -0.023 0.014 -0.035 0.021 -0.197 0.113 -0.398 0.207 -0.604 0.282 -0.103 0.038 -0.206 0.07 -0.31 0.099 -0.009 0.002 -0.018 0.005 -0.027 0.007 -0.09 0.024 -0.18 0.044 -0.27 0.063 c -0.25 0.049 -0.509 0.077 -0.775 0.077 -1.756 0 -3.232 -1.114 -3.775 -2.678" mix-blend-mode="normal" isolation="auto" white-space="normal" solid-opacity="1" solid-color="#000000" style="visibility:visible;shape-rendering:auto;color-interpolation-filters:linearRGB;fill:#34a853;opacity:1;image-rendering:auto;fill-opacity:1;stroke:none;display:inline;color:#000;fill-rule:nonzero;color-rendering:auto;color-interpolation:sRGB"/>
 <path d="m 8 7 0 2 3.874 0 c -0.254 0.995 -0.878 1.836 -1.719 2.372 l 1.62 1.282 c 1.355 -1.102 2.226 -2.78 2.226 -4.654 c 0 -0.341 -0.036 -0.674 -0.091 -1 -1.97 0 -3.939 0 -5.909 0 z" mix-blend-mode="normal" isolation="auto" white-space="normal" solid-opacity="1" solid-color="#000000" style="visibility:visible;shape-rendering:auto;color-interpolation-filters:linearRGB;fill:#4285f4;opacity:1;image-rendering:auto;fill-opacity:1;stroke:none;display:inline;color:#000;fill-rule:nonzero;color-rendering:auto;color-interpolation:sRGB"/>
 <path d="m 7.995 2 c -2.369 0 -4.42 1.392 -5.395 3.396 l 1.62 1.283 c 0.542 -1.564 2.02 -2.678 3.775 -2.678 c 1.025 0 1.953 0.382 2.658 1.01 l 1.406 -1.406 c -1.071 -0.991 -2.497 -1.603 -4.064 -1.603" mix-blend-mode="normal" isolation="auto" white-space="normal" solid-opacity="1" solid-color="#000000" style="visibility:visible;shape-rendering:auto;color-interpolation-filters:linearRGB;fill:#ea4335;opacity:1;image-rendering:auto;fill-opacity:1;stroke:none;display:inline;color:#000;fill-rule:nonzero;color-rendering:auto;color-interpolation:sRGB"/>
</svg>
